assets/images/svgs/down-arrow-link-btn.svg

<svg width="144" height="143" viewBox="0 0 144 143" fill="none" xmlns="http://www.w3.org/2000/svg">
<path d="M133 71.5C133 104.898 105.704 132 72 132C38.2956 132 11 104.898 11 71.5C11 38.1018 38.2956 11 72 11C105.704 11 133 38.1018 133 71.5Z" fill="url(#paint0_linear_4_13)" stroke="white" stroke-width="4"/>
<ellipse cx="71.5056" cy="72" rx="45.5056" ry="45" fill="#030303"/>
<path d="M61.9388 72.9387C62.0782 72.7989 62.2437 72.6879 62.4261 72.6122C62.6084 72.5365 62.8039 72.4975 63.0013 72.4975C63.1987 72.4975 63.3942 72.5365 63.5765 72.6122C63.7589 72.6879 63.9244 72.7989 64.0638 72.9387L70.5001 79.375L70.5001 60.9999C70.5001 60.6021 70.6581 60.2206 70.9394 59.9393C71.2207 59.658 71.6022 59.4999 72.0001 59.4999C72.3979 59.4999 72.7794 59.658 73.0607 59.9393C73.342 60.2206 73.5001 60.6021 73.5001 60.9999L73.5001 79.375L79.9388 72.9387C80.2206 72.6569 80.6028 72.4986 81.0013 72.4986C81.3998 72.4986 81.782 72.6569 82.0638 72.9387C82.3456 73.2205 82.5039 73.6027 82.5039 74.0012C82.5039 74.3997 82.3456 74.7819 82.0638 75.0637L73.0638 84.0637C72.9244 84.2035 72.7589 84.3145 72.5765 84.3902C72.3942 84.4659 72.1987 84.5049 72.0013 84.5049C71.8039 84.5049 71.6084 84.4659 71.4261 84.3902C71.2437 84.3145 71.0782 84.2035 70.9388 84.0637L61.9388 75.0637C61.799 74.9243 61.688 74.7588 61.6123 74.5764C61.5366 74.3941 61.4976 74.1986 61.4976 74.0012C61.4976 73.8038 61.5366 73.6083 61.6123 73.426C61.688 73.2436 61.799 73.0781 61.9388 72.9387Z" fill="white"/>
<path d="M143.937 68.4785C143.965 69.1465 143.984 69.8169 143.993 70.4894L143.493 70.4964C143.498 70.8304 143.5 71.1649 143.5 71.5C143.5 71.8351 143.498 72.1696 143.493 72.5035L143.993 72.5105C143.984 73.1831 143.965 73.8534 143.937 74.5214L143.437 74.5005C143.409 75.1686 143.372 75.8342 143.326 76.4974L143.824 76.5323C143.778 77.2025 143.721 77.8701 143.656 78.5351L143.158 78.4861C143.093 79.1518 143.018 79.8148 142.934 80.475L143.43 80.538C143.346 81.204 143.252 81.8673 143.149 82.5275L142.655 82.4505C142.552 83.1112 142.44 83.7689 142.318 84.4234L142.81 84.5145C142.688 85.1751 142.556 85.8325 142.416 86.4866L141.927 86.3816C141.787 87.0345 141.638 87.684 141.479 88.3301L141.965 88.449C141.805 89.1018 141.636 89.7512 141.459 90.3969L140.977 90.2642C140.8 90.9073 140.614 91.5467 140.419 92.1823L140.897 92.3287C140.7 92.9716 140.495 93.6106 140.28 94.2457L139.806 94.0858C139.593 94.7172 139.371 95.3447 139.141 95.9681L139.61 96.1415C139.377 96.7721 139.135 97.3986 138.885 98.0208L138.421 97.8341C138.172 98.4526 137.914 99.0668 137.649 99.6766L138.107 99.8764C137.839 100.492 137.562 101.103 137.276 101.71L136.824 101.497C136.54 102.101 136.248 102.7 135.948 103.294L136.394 103.519C136.092 104.119 135.781 104.713 135.462 105.302L135.022 105.064C134.705 105.651 134.379 106.232 134.046 106.809L134.478 107.059C134.142 107.64 133.798 108.216 133.447 108.786L133.021 108.524C132.671 109.092 132.313 109.654 131.948 110.211L132.366 110.485C131.998 111.046 131.622 111.602 131.238 112.152L130.828 111.866C130.447 112.413 130.058 112.954 129.662 113.489L130.064 113.787C129.665 114.326 129.258 114.86 128.844 115.388L128.451 115.079C128.04 115.604 127.621 116.122 127.196 116.635L127.581 116.954C127.152 117.471 126.716 117.981 126.273 118.485L125.898 118.155C125.458 118.655 125.011 119.15 124.558 119.638L124.924 119.978C124.467 120.47 124.004 120.955 123.533 121.433L123.177 121.083C122.71 121.558 122.236 122.027 121.756 122.489L122.103 122.849C121.619 123.314 121.129 123.773 120.633 124.224L120.297 123.855C119.804 124.303 119.305 124.744 118.8 125.179L119.126 125.558C118.618 125.996 118.103 126.426 117.582 126.85L117.267 126.462C116.75 126.882 116.227 127.295 115.699 127.701L116.003 128.097C115.471 128.506 114.933 128.907 114.39 129.301L114.096 128.896C113.557 129.287 113.012 129.67 112.461 130.046L112.743 130.459C112.19 130.837 111.631 131.208 111.066 131.57L110.796 131.15C110.235 131.51 109.669 131.862 109.098 132.207L109.357 132.635C108.783 132.982 108.204 133.32 107.62 133.651L107.374 133.216C106.795 133.544 106.21 133.865 105.621 134.177L105.855 134.619C105.263 134.933 104.666 135.238 104.064 135.536L103.842 135.088C103.246 135.383 102.645 135.67 102.039 135.949L102.248 136.403C101.639 136.684 101.025 136.956 100.407 137.22L100.211 136.76C99.5992 137.021 98.9832 137.274 98.3629 137.518L98.5462 137.983C97.9223 138.229 97.2941 138.467 96.6618 138.696L96.4916 138.225C95.8666 138.452 95.2377 138.67 94.6047 138.879L94.7617 139.354C94.1254 139.564 93.4852 139.766 92.8412 139.959L92.6976 139.48C92.0607 139.671 91.4201 139.853 90.7758 140.027L90.9059 140.51C90.2594 140.684 89.6094 140.849 88.9558 141.006L88.8392 140.52C88.1922 140.675 87.5418 140.821 86.8881 140.959L86.991 141.448C86.3364 141.586 85.6786 141.715 85.0176 141.834L84.9284 141.342C84.2732 141.461 83.6149 141.571 82.9536 141.672L83.0291 142.166C82.3686 142.267 81.7053 142.359 81.0391 142.442L80.9773 141.946C80.317 142.028 79.6538 142.101 78.9879 142.165L79.0358 142.663C78.3707 142.727 77.7029 142.782 77.0326 142.828L76.9984 142.329C76.3351 142.375 75.6693 142.411 75.0011 142.439L75.0216 142.938C74.3536 142.966 73.6832 142.984 73.0106 142.993L73.0037 142.493C72.6697 142.498 72.3351 142.5 72 142.5C71.6649 142.5 71.3303 142.498 70.9963 142.493L70.9895 142.993C70.3169 142.984 69.6465 142.966 68.9785 142.938L68.999 142.439C68.3308 142.411 67.665 142.375 67.0017 142.329L66.9675 142.828C66.2972 142.782 65.6294 142.727 64.9643 142.663L65.0122 142.165C64.3463 142.101 63.6831 142.028 63.0227 141.946L62.961 142.442C62.2948 142.359 61.6314 142.267 60.971 142.166L61.0465 141.672C60.3852 141.571 59.7268 141.461 59.0717 141.342L58.9824 141.834C58.3215 141.715 57.6636 141.586 57.0091 141.448L57.112 140.959C56.4583 140.821 55.8078 140.675 55.1608 140.52L55.0443 141.006C54.3907 140.849 53.7406 140.684 53.0941 140.51L53.2242 140.027C52.58 139.853 51.9393 139.671 51.3024 139.48L51.1588 139.959C50.5148 139.766 49.8746 139.564 49.2383 139.354L49.3953 138.879C48.7624 138.67 48.1334 138.452 47.5085 138.225L47.3383 138.696C46.7059 138.467 46.0777 138.229 45.4538 137.983L45.6371 137.518C45.0168 137.274 44.4008 137.021 43.7892 136.76L43.5929 137.22C42.9748 136.956 42.3612 136.684 41.7522 136.403L41.9613 135.949C41.3555 135.67 40.7543 135.383 40.1578 135.088L39.9361 135.536C39.3342 135.238 38.7372 134.933 38.1451 134.619L38.3792 134.177C37.7898 133.865 37.2054 133.544 36.626 133.216L36.3796 133.651C35.7956 133.32 35.2168 132.982 34.6433 132.635L34.9017 132.207C34.3307 131.862 33.7649 131.51 33.2045 131.15L32.9341 131.57C32.3695 131.208 31.8103 130.837 31.2566 130.459L31.5386 130.046C30.988 129.67 30.4429 129.287 29.9036 128.896L29.6102 129.301C29.0666 128.907 28.5288 128.506 27.9969 128.097L28.3014 127.701C27.7728 127.295 27.2501 126.882 26.7334 126.462L26.4179 126.85C25.8971 126.426 25.3824 125.996 24.8739 125.558L25.2 125.179C24.6949 124.744 24.196 124.303 23.7034 123.855L23.3668 124.224C22.8705 123.773 22.3806 123.314 21.8972 122.849L22.2439 122.489C21.7638 122.027 21.2902 121.558 20.8233 121.083L20.4666 121.433C19.9963 120.955 19.5328 120.47 19.076 119.978L19.4423 119.638C18.9888 119.15 18.542 118.655 18.1023 118.155L17.7266 118.485C17.2838 117.981 16.848 117.47 16.4193 116.954L16.804 116.635C16.3785 116.122 15.9602 115.604 15.549 115.079L15.1556 115.388C14.7417 114.86 14.3351 114.326 13.936 113.787L14.3379 113.489C13.9418 112.954 13.5531 112.413 13.172 111.866L12.7618 112.152C12.3783 111.602 12.0023 111.046 11.6341 110.485L12.0521 110.211C11.6867 109.654 11.3289 109.092 10.979 108.524L10.5534 108.786C10.2016 108.216 9.85757 107.64 9.52156 107.059L9.95438 106.809C9.62095 106.232 9.29543 105.651 8.97798 105.064L8.53826 105.302C8.21925 104.713 7.90832 104.119 7.60563 103.519L8.05191 103.294C7.75176 102.7 7.45977 102.101 7.17607 101.497L6.72357 101.71C6.43838 101.103 6.1615 100.492 5.8931 99.8764L6.35145 99.6766C6.08568 99.0668 5.82826 98.4526 5.57936 97.8341L5.11551 98.0208C4.86512 97.3986 4.62328 96.7721 4.39013 96.1415L4.85911 95.9681C4.62865 95.3447 4.40674 94.7172 4.19353 94.0858L3.71981 94.2458C3.50537 93.6107 3.29966 92.9716 3.10283 92.3287L3.58093 92.1824C3.38632 91.5467 3.20044 90.9073 3.02345 90.2643L2.54137 90.3969C2.36365 89.7512 2.1948 89.1019 2.03499 88.449L2.52065 88.3301C2.3625 87.6841 2.21324 87.0345 2.07303 86.3817L1.58418 86.4867C1.44369 85.8326 1.31221 85.1751 1.18988 84.5145L1.68152 84.4235C1.56031 83.7689 1.44814 83.1113 1.34514 82.4506L0.851104 82.5276C0.748176 81.8673 0.654344 81.2041 0.56974 80.538L1.06575 80.475C0.981903 79.8149 0.907178 79.1519 0.841711 78.4862L0.344111 78.5351C0.278717 77.8702 0.222495 77.2026 0.175572 76.5324L0.674351 76.4975C0.627918 75.8343 0.590655 75.1686 0.562687 74.5005L0.0631245 74.5215C0.0351617 73.8535 0.0164273 73.1831 0.0070447 72.5106L0.506996 72.5036C0.502337 72.1696 0.5 71.8351 0.5 71.5C0.5 71.1649 0.502337 70.8304 0.506995 70.4965L0.00704363 70.4895C0.0164256 69.8169 0.0351593 69.1466 0.0631216 68.4786L0.562684 68.4995C0.590651 67.8314 0.627913 67.1658 0.674346 66.5026L0.175567 66.4677C0.222489 65.7975 0.278711 65.1299 0.344105 64.4649L0.841704 64.5139C0.907171 63.8482 0.981895 63.1852 1.06575 62.525L0.569731 62.462C0.654335 61.796 0.748167 61.1327 0.851095 60.4725L1.34513 60.5495C1.44813 59.8888 1.5603 59.2311 1.68151 58.5766L1.18987 58.4855C1.3122 57.8249 1.44368 57.1675 1.58417 56.5134L2.07302 56.6184C2.21323 55.9655 2.36249 55.316 2.52064 54.6699L2.03498 54.551C2.19479 53.8982 2.36363 53.2488 2.54136 52.6031L3.02343 52.7358C3.20043 52.0927 3.3863 51.4533 3.58092 50.8177L3.10282 50.6713C3.29965 50.0284 3.50536 49.3893 3.7198 48.7543L4.19352 48.9142C4.40673 48.2828 4.62864 47.6553 4.8591 47.0319L4.39012 46.8585C4.62327 46.2279 4.86511 45.6014 5.1155 44.9792L5.57935 45.1659C5.82825 44.5474 6.08567 43.9332 6.35145 43.3234L5.89309 43.1236C6.1615 42.5078 6.43837 41.8965 6.72357 41.2899L7.17606 41.5026C7.45976 40.8991 7.75176 40.3002 8.0519 39.7061L7.60562 39.4807C7.90832 38.8815 8.21924 38.2871 8.53825 37.6978L8.97798 37.9357C9.29543 37.3492 9.62095 36.7676 9.95438 36.1911L9.52156 35.9408C9.85757 35.3599 10.2016 34.784 10.5534 34.2135L10.979 34.4759C11.3289 33.9084 11.6867 33.3461 12.0521 32.7892L11.6341 32.5149C12.0023 31.9538 12.3783 31.3981 12.7618 30.848L13.172 31.134C13.5531 30.5872 13.9419 30.0461 14.3379 29.5106L13.936 29.2133C14.3351 28.6737 14.7417 28.1399 15.1556 27.612L15.5491 27.9205C15.9602 27.3962 16.3786 26.8777 16.804 26.3652L16.4193 26.0458C16.848 25.5295 17.2838 25.0192 17.7267 24.5152L18.1023 24.8452C18.542 24.3447 18.9888 23.8503 19.4423 23.3623L19.076 23.0219C19.5328 22.5305 19.9964 22.0454 20.4666 21.5668L20.8233 21.9172C21.2902 21.4421 21.7638 20.9734 22.2439 20.5113L21.8972 20.1511C22.3806 19.6859 22.8705 19.2273 23.3668 18.7756L23.7034 19.1454C24.196 18.6971 24.6949 18.2555 25.2 17.8209L24.8739 17.4419C25.3824 17.0043 25.8971 16.5738 26.418 16.1503L26.7334 16.5382C27.2501 16.1181 27.7728 15.705 28.3014 15.2991L27.9969 14.9026C28.5288 14.4941 29.0666 14.0929 29.6102 13.6991L29.9036 14.104C30.4429 13.7133 30.988 13.3299 31.5386 12.9539L31.2566 12.541C31.8103 12.163 32.3695 11.7925 32.9342 11.4296L33.2045 11.8502C33.7649 11.4901 34.3307 11.1375 34.9017 10.7927L34.6433 10.3646C35.2168 10.0183 35.7956 9.67965 36.3796 9.3489L36.626 9.78396C37.2054 9.45579 37.7898 9.13543 38.3792 8.82303L38.1451 8.38126C38.7372 8.0674 39.3342 7.76152 39.9361 7.46377L40.1578 7.91192C40.7543 7.61682 41.3555 7.32975 41.9613 7.05085L41.7522 6.59667C42.3612 6.31631 42.9748 6.04416 43.5929 5.78036L43.7891 6.24022C44.4008 5.97916 45.0168 5.72633 45.6371 5.48187L45.4538 5.01669C46.0777 4.77081 46.7059 4.53333 47.3382 4.30441L47.5084 4.77454C48.1334 4.54831 48.7623 4.33048 49.3953 4.12121L49.2383 3.64648C49.8746 3.4361 50.5148 3.2343 51.1588 3.04122L51.3024 3.52015C51.9393 3.3292 52.5799 3.14683 53.2242 2.97319L53.0941 2.49041C53.7406 2.31617 54.3906 2.15064 55.0442 1.99397L55.1608 2.4802C55.8078 2.3251 56.4582 2.17874 57.1119 2.04126L57.009 1.55196C57.6636 1.4143 58.3214 1.28548 58.9824 1.16561L59.0716 1.65759C59.7268 1.53878 60.3851 1.42883 61.0464 1.32788L60.9709 0.833606C61.6314 0.732792 62.2947 0.640888 62.9609 0.558024L63.0226 1.0542C63.683 0.972058 64.3462 0.898859 65.0121 0.834728L64.9642 0.337031C65.6293 0.272974 66.2971 0.217903 66.9674 0.171944L67.0016 0.670772C67.6649 0.625293 68.3307 0.588796 68.9989 0.561403L68.9784 0.0618224C69.6464 0.0344357 70.3168 0.016088 70.9894 0.00689915L70.9963 0.506853C71.3303 0.502289 71.6649 0.5 72 0.5C72.3351 0.5 72.6697 0.502289 73.0037 0.506851L73.0105 0.00689806C73.6831 0.0160862 74.3535 0.0344334 75.0215 0.0618196L75.001 0.5614C75.6692 0.588792 76.335 0.625289 76.9983 0.670768L77.0325 0.171939C77.7028 0.217898 78.3706 0.272968 79.0357 0.337025L78.9878 0.834722C79.6537 0.898852 80.3169 0.972051 80.9773 1.05419L81.039 0.558016C81.7052 0.64088 82.3686 0.732783 83.029 0.833597L82.9535 1.32787C83.6148 1.42882 84.2732 1.53877 84.9283 1.65758L85.0176 1.1656C85.6785 1.28547 86.3364 1.41429 86.9909 1.55195L86.888 2.04125C87.5417 2.17873 88.1922 2.32509 88.8392 2.48019L88.9557 1.99396C89.6093 2.15063 90.2594 2.31616 90.9059 2.4904L90.7758 2.97318C91.42 3.14682 92.0607 3.32919 92.6976 3.52014L92.8412 3.04121C93.4852 3.23429 94.1254 3.43609 94.7617 3.64647L94.6047 4.1212C95.2376 4.33047 95.8666 4.5483 96.4915 4.77454L96.6617 4.3044C97.2941 4.53332 97.9223 4.7708 98.5462 5.01669L98.3629 5.48186C98.9832 5.72632 99.5992 5.97915 100.211 6.24021L100.407 5.78035C101.025 6.04415 101.639 6.31631 102.248 6.59666L102.039 7.05084C102.644 7.32974 103.246 7.61681 103.842 7.91191L104.064 7.46376C104.666 7.76152 105.263 8.0674 105.855 8.38125L105.621 8.82303C106.21 9.13543 106.795 9.45579 107.374 9.78396L107.62 9.34891C108.204 9.67966 108.783 10.0183 109.357 10.3647L109.098 10.7927C109.669 11.1375 110.235 11.4901 110.796 11.8502L111.066 11.4296C111.631 11.7925 112.19 12.163 112.743 12.541L112.461 12.9539C113.012 13.3299 113.557 13.7133 114.096 14.104L114.39 13.6991C114.933 14.093 115.471 14.4942 116.003 14.9026L115.699 15.2992C116.227 15.705 116.75 16.1181 117.267 16.5382L117.582 16.1503C118.103 16.5738 118.618 17.0044 119.126 17.4419L118.8 17.8209C119.305 18.2555 119.804 18.6971 120.297 19.1454L120.633 18.7756C121.13 19.2273 121.619 19.6859 122.103 20.1511L121.756 20.5113C122.236 20.9734 122.71 21.4421 123.177 21.9173L123.533 21.5668C124.004 22.0454 124.467 22.5305 124.924 23.0219L124.558 23.3623C125.011 23.8503 125.458 24.3447 125.898 24.8452L126.273 24.5152C126.716 25.0193 127.152 25.5295 127.581 26.0458L127.196 26.3652C127.621 26.8777 128.04 27.3962 128.451 27.9205L128.844 27.612C129.258 28.1399 129.665 28.6737 130.064 29.2133L129.662 29.5106C130.058 30.0461 130.447 30.5872 130.828 31.134L131.238 30.848C131.622 31.3981 131.998 31.9538 132.366 32.5149L131.948 32.7892C132.313 33.3461 132.671 33.9084 133.021 34.4759L133.447 34.2135C133.798 34.784 134.142 35.3599 134.478 35.9408L134.046 36.1911C134.379 36.7676 134.705 37.3492 135.022 37.9357L135.462 37.6977C135.781 38.2871 136.092 38.8815 136.394 39.4806L135.948 39.7061C136.248 40.3002 136.54 40.8991 136.824 41.5026L137.276 41.2899C137.562 41.8965 137.839 42.5078 138.107 43.1236L137.649 43.3234C137.914 43.9332 138.172 44.5474 138.421 45.1659L138.884 44.9792C139.135 45.6014 139.377 46.2279 139.61 46.8585L139.141 47.0319C139.371 47.6553 139.593 48.2828 139.806 48.9142L140.28 48.7542C140.495 49.3893 140.7 50.0284 140.897 50.6713L140.419 50.8176C140.614 51.4533 140.8 52.0927 140.977 52.7357L141.459 52.6031C141.636 53.2488 141.805 53.8981 141.965 54.551L141.479 54.6699C141.637 55.3159 141.787 55.9655 141.927 56.6183L142.416 56.5133C142.556 57.1675 142.688 57.8249 142.81 58.4855L142.318 58.5765C142.44 59.2311 142.552 59.8887 142.655 60.5494L143.149 60.4724C143.252 61.1327 143.346 61.7959 143.43 62.462L142.934 62.525C143.018 63.1851 143.093 63.8481 143.158 64.5138L143.656 64.4649C143.721 65.1298 143.778 65.7974 143.824 66.4676L143.326 66.5025C143.372 67.1657 143.409 67.8314 143.437 68.4995L143.937 68.4785Z" stroke="#030303" stroke-dasharray="2 2"/>
<defs>
<linearGradient id="paint0_linear_4_13" x1="72" y1="9" x2="72" y2="134" gradientUnits="userSpaceOnUse">
<stop stop-color="#A81AFF"/>
<stop offset="1" stop-color="#73E5E2"/>
</linearGradient>
</defs>
</svg>

<svg xmlns="http://www.w3.org/2000/svg" width="144" height="143" fill="none" xmlns:v="https://vecta.io/nano"><path d="M133 71.5c0 33.398-27.296 60.5-61 60.5s-61-27.102-61-60.5S38.296 11 72 11s61 27.102 61 60.5z" fill="url(#A)" stroke="#fff" stroke-width="4"/><ellipse cx="71.506" cy="72" rx="45.506" ry="45" fill="#030303"/><path d="M61.939 72.939a1.5 1.5 0 0 1 1.063-.441 1.5 1.5 0 0 1 1.063.441l6.436 6.436V61a1.5 1.5 0 0 1 1.5-1.5 1.5 1.5 0 0 1 1.5 1.5v18.375l6.439-6.436c.282-.282.664-.44 1.063-.44s.781.158 1.063.44.44.664.44 1.063-.158.781-.44 1.063l-9 9a1.5 1.5 0 0 1-1.062.441 1.5 1.5 0 0 1-1.062-.441l-9-9a1.5 1.5 0 0 1-.441-1.062 1.5 1.5 0 0 1 .441-1.062z" fill="#fff"/><path d="M143.937 68.479l.056 2.011-.5.007.007 1.004-.007 1.004.5.007-.056 2.011-.5-.021-.111 1.997.498.035-.168 2.003-.498-.049-.224 1.989.496.063-.281 1.99-.494-.077-.337 1.973.492.091-.394 1.972-.489-.105-.448 1.948.486.119-.506 1.948-.482-.133-.558 1.918.478.146-.617 1.917-.474-.16-.665 1.882.469.173-.725 1.879-.464-.187-.772 1.842.458.2-.831 1.834-.452-.213-.876 1.797.446.225-.932 1.783-.44-.238-.976 1.745.432.25-1.031 1.727-.426-.262-1.073 1.687.418.274-1.128 1.667-.41-.286-1.166 1.623.402.298-1.22 1.601-.393-.309-1.255 1.556.385.319-1.308 1.531-.375-.33-1.34 1.483.366.34-1.391 1.455-.356-.35-1.421 1.406.347.36-1.47 1.375-.336-.369-1.497 1.324.326.379-1.544 1.292-.315-.388-1.568 1.239.304.396-1.613 1.204-.294-.405-1.635 1.15.282.413-1.677 1.111-.27-.42-1.698 1.057.259.428-1.737 1.016-.246-.435-1.753.961.234.442-1.791.917-.222-.448-1.803.861.209.454-1.841.817-.196-.46-1.848.758.183.465-1.884.713-.17-.471-1.887.654.157.475-1.921.605-.144-.479-1.922.547.13.483-1.95.496-.117-.486-1.951.439.103.489-1.973.386-.089-.492-1.975.33.076.494-1.99.276-.062-.496-1.989.219.048.498-2.003.165-.034-.499-1.997.11.021.499-2.011.055-.007-.5L72 142.5c-.335 0-.67-.002-1.004-.007l-.007.5-2.011-.055.02-.499-1.997-.11-.034.499-2.003-.165.048-.498-1.99-.219-.062.496-1.99-.276.076-.494-1.975-.33-.089.492-1.973-.386.103-.489-1.951-.439-.117.486-1.95-.496.13-.483-1.922-.547-.144.479-1.92-.605.157-.475-1.887-.654-.17.471-1.884-.713.183-.465-1.848-.758-.196.46-1.841-.817.209-.454-1.803-.861-.222.448-1.791-.917.234-.442-1.753-.961-.246.435-1.736-1.016.258-.428-1.697-1.057-.27.42-1.678-1.111.282-.413-1.635-1.15-.293.405-1.613-1.204.305-.396-1.568-1.239-.316.388-1.544-1.292.326-.379-1.497-1.324-.337.369-1.47-1.375.347-.36-1.421-1.406-.357.35-1.391-1.455.366-.34-1.34-1.483-.376.33-1.307-1.531.385-.319-1.255-1.556-.393.309-1.22-1.601.402-.298-1.166-1.623-.41.286-1.128-1.667.418-.274-1.073-1.687-.426.262-1.032-1.727.433-.25-.976-1.745-.44.238-.933-1.783.446-.225-.876-1.797-.453.213-.83-1.834.458-.2-.772-1.842-.464.187-.725-1.879.469-.173-.666-1.882-.474.16-.617-1.917.478-.146-.557-1.918-.482.133-.506-1.948.486-.119-.448-1.948-.489.105-.394-1.972.492-.091-.336-1.973-.494.077-.281-1.99.496-.063-.224-1.989-.498.049-.169-2.003.499-.035-.112-1.997-.5.021-.056-2.011.5-.007L.5 71.5l.007-1.004-.5-.007.056-2.011.5.021.112-1.997-.499-.035.169-2.003.498.049.224-1.989-.496-.063.281-1.99.494.077.336-1.973-.492-.091.394-1.972.489.105.448-1.949-.486-.119.506-1.948.482.133.557-1.918-.478-.146.617-1.917.474.16.666-1.882-.469-.173.725-1.879.464.187.772-1.843-.458-.2.83-1.834.452.213.876-1.797-.446-.225.933-1.783.44.238.976-1.745-.433-.25 1.032-1.727.426.262 1.073-1.687-.418-.274 1.128-1.667.41.286 1.166-1.623-.402-.297 1.22-1.601.393.309 1.255-1.555-.385-.319 1.307-1.531.376.33 1.34-1.483-.366-.34 1.391-1.455.357.35 1.421-1.406-.347-.36 1.47-1.375.337.37 1.497-1.324-.326-.379 1.544-1.292.315.388 1.568-1.239-.305-.396 1.613-1.203.293.405 1.635-1.15-.282-.413 1.678-1.111.27.421 1.697-1.057-.258-.428 1.736-1.016.246.435 1.753-.961-.234-.442 1.791-.917.222.448 1.803-.861-.209-.454 1.841-.816.196.46 1.848-.758-.183-.465 1.884-.712.17.47 1.887-.653-.157-.475 1.92-.605.144.479 1.922-.547-.13-.483 1.95-.496.117.486 1.951-.439-.103-.489 1.973-.386.089.492 1.975-.33-.075-.494 1.99-.276.062.496 1.99-.219-.048-.498 2.003-.165.034.499 1.997-.109-.021-.5 2.011-.055.007.5L72 .5l1.004.007.007-.5 2.011.055-.02.5 1.997.109.034-.499 2.003.165-.048.498 1.99.219.062-.496 1.99.276-.075.494 1.975.33.089-.492 1.973.386-.103.489 1.951.439.116-.486 1.95.496-.13.483 1.922.547.144-.479 1.921.605-.157.475 1.887.653.17-.47 1.885.712-.183.465 1.848.758.196-.46 1.841.816-.209.454 1.803.861.222-.448 1.791.917-.234.442 1.753.961.246-.435 1.737 1.016-.259.428 1.698 1.057.27-.421 1.677 1.111-.282.413 1.635 1.15.294-.405 1.613 1.204-.304.397 1.568 1.239.315-.388 1.544 1.292-.326.379 1.497 1.324.336-.37 1.47 1.375-.347.36 1.421 1.406.356-.351 1.391 1.455-.366.34 1.34 1.483.375-.33 1.308 1.531-.385.319 1.255 1.555.393-.309 1.22 1.601-.402.297 1.166 1.623.41-.286 1.128 1.667-.418.274 1.073 1.687.426-.262 1.031 1.727-.432.25.976 1.745.44-.238.932 1.783-.446.225.876 1.797.452-.213.831 1.834-.458.2.772 1.843.463-.187.726 1.879-.469.173.665 1.882.474-.16.617 1.917-.478.146.558 1.918.482-.133.506 1.948-.486.119.448 1.948.489-.105.394 1.972-.492.091.337 1.973.494-.077.281 1.99-.496.063.224 1.989.498-.049.168 2.003-.498.035.111 1.997.5-.021z" stroke="#030303" stroke-dasharray="2 2"/><defs><linearGradient id="A" x1="72" y1="9" x2="72" y2="134" gradientUnits="userSpaceOnUse"><stop stop-color="#a81aff"/><stop offset="1" stop-color="#73e5e2"/></linearGradient></defs></svg>
